X: 21182
M: 6/8
L: 1/8
K: G
V: 1 name="2"
d2d d>ed | ^c2A A2A | c>Bc e>dc | B3 zG<A |\
d2c d/z/ (d<c) | B2A B/z/ (d<c) | A2^G A/z/ c<B | G3 "^D.C."z |]
zd{d} |\
def gab & B3 (B2d) |\
def gab & B3 (B2d) |\
d'c'b aga & (c2B) (c2d) |\
c'bg a2d & B3- B2x |\
def gab & B3 B2d |\
def gab & B3 B2d |\
d'c'b a^ga & c2B c2d |\
g2g "^D.C."g2 & B2B B2 |]
e2e |\
d>cB e2e | d>cB (c2e) | (d2B) (c2A) | B2z e2e |\
d>cB e2e | d>cB c2e | d2B c2A | G3 "^D.C."z |]


